X: 508
%
U:~=!turn!
T: Nathaniel Gow
C:Mr. Mc. Intyre
O:Scotland
B:Keith Norman MacDonald : "The Skye collection of the best reels & strathspeys extant" : 1887
Z:Ralph Palmer
R:Strathspey
M:C
L:1/8
K:D phrygian
D |: B,>FD<G F<B, {/E}D2 | B,>FD>F G/F/E/D/ C<D | B,>FD<G F<B,D>B | F>GB>c d/c/B/A/ [1 B<d :| [2B<g ||
f>B e/d/c/B/ f<B {Bc}d2 | f<Bd>f g>ce>g | f<Bd>f B>fd>f | e>gd>f g<ce<g |
!mf!f>B e/d/c/B/ f<B {Bc}d2 | f<Bd>f g/f/e/d/ c/B/A/G/ | F<B G/F/E/D/ F<B,D>F | (3EGE (3DFD G<CEG |]


